X:316
T:Yavuz Geliyor
Z:Jack Campin, http://www.campin.me.uk/
F:Jack Campin's Nine-Note Tunebook
% last edit 03-02-2013
G:song from the Black Sea
M:7/8
L:1/8
Q:1/4=150
K:EPhr
A2 B2 B2B|B2 B2 B2G|A2 A2 A2F|G2 GG    G2z:|
A2 A2 A2F|G2 G2 G2E|F2 F2 F2D|E2 EE [1 A2z:|\
                                    [2 E2z|]

